icons/hash.svg

<svg xmlns="http://www.w3.org/2000/svg" width="24" height="24" viewBox="0 0 24 24">
  <path d="M16.0482586,2.00106987 L16.164399,2.01360608 C16.6702571,2.09791577 17.0237129,2.5481902 16.9989301,3.04825859 L16.9863939,3.16439899 L16.18,7.99984396 L21,8 C21.5522847,8 22,8.44771525 22,9 C22,9.51283584 21.6139598,9.93550716 21.1166211,9.99327227 L21,10 L15.847,9.99984396 L15.18,13.999844 L21,14 C21.5522847,14 22,14.4477153 22,15 C22,15.5128358 21.6139598,15.9355072 21.1166211,15.9932723 L21,16 L14.847,15.999844 L13.9863939,21.164399 C13.8955989,21.7091693 13.3803713,22.077189 12.835601,21.9863939 C12.3297429,21.9020842 11.9762871,21.4518098 12.0010699,20.9517414 L12.0136061,20.835601 L12.819,15.999844 L8.847,15.999844 L7.98639392,21.164399 C7.89559887,21.7091693 7.38037133,22.077189 6.83560101,21.9863939 C6.32974286,21.9020842 5.97628705,21.4518098 6.00106987,20.9517414 L6.01360608,20.835601 L6.819,15.999844 L3,16 C2.44771525,16 2,15.5522847 2,15 C2,14.4871642 2.38604019,14.0644928 2.88337887,14.0067277 L3,14 L7.152,13.999844 L7.819,9.99984396 L3,10 C2.44771525,10 2,9.55228475 2,9 C2,8.48716416 2.38604019,8.06449284 2.88337887,8.00672773 L3,8 L8.152,7.99984396 L9.01360608,2.83560101 C9.09791577,2.32974286 9.5481902,1.97628705 10.0482586,2.00106987 L10.164399,2.01360608 C10.6702571,2.09791577 11.0237129,2.5481902 10.9989301,3.04825859 L10.9863939,3.16439899 L10.18,7.99984396 L14.152,7.99984396 L15.0136061,2.83560101 C15.0979158,2.32974286 15.5481902,1.97628705 16.0482586,2.00106987 Z M13.152,13.999844 L13.819,9.99984396 L9.847,9.99984396 L9.18,13.999844 L13.152,13.999844 Z"/>
</svg>

<svg xmlns="http://www.w3.org/2000/svg" viewBox="0 0 24 24">
  <path d="m16.05 2 .11.01A1 1 0 0 1 17 3.05l-.01.11L16.18 8H21a1 1 0 0 1 .12 2h-5.27l-.67 4H21a1 1 0 0 1 .12 2h-6.27l-.86 5.16a1 1 0 0 1-1.99-.2l.01-.12.8-4.84H8.86L8 21.16a1 1 0 0 1-1.99-.2l.01-.12.8-4.84H3a1 1 0 0 1-.12-2h4.27l.67-4H3a1 1 0 0 1-.12-2h5.27l.86-5.16A1 1 0 0 1 10.05 2l.11.01A1 1 0 0 1 11 3.05l-.01.11L10.18 8h3.97l.86-5.16A1 1 0 0 1 16.05 2zm-2.9 12 .67-4H9.85l-.67 4h3.97z"/>
</svg>
